openmetadata-ui/src/main/resources/ui/src/assets/svg/ic-filter.svg

<svg width="20" height="20" viewBox="0 0 20 20" fill="none" xmlns="http://www.w3.org/2000/svg">
<path d="M19.2569 0H0.820313C0.388794 0 0.0390625 0.349732 0.0390625 0.78125C0.0390625 2.95685 0.97168 5.03388 2.59781 6.47934L6.01929 9.52042C6.61255 10.0478 6.95282 10.8055 6.95282 11.5994V19.2178C6.95282 19.8404 7.64862 20.2136 8.16727 19.8677L12.7765 16.795C12.9938 16.6501 13.1244 16.4063 13.1244 16.145V11.5994C13.1244 10.8055 13.4647 10.0478 14.0579 9.52042L17.4793 6.47934C19.1054 5.03388 20.038 2.95685 20.038 0.78125C20.038 0.349732 19.6883 0 19.2569 0ZM16.4412 5.31143L13.0199 8.35266C12.0934 9.17633 11.5619 10.3597 11.5619 11.5993V15.7269L8.51517 17.758V11.5994C8.51517 10.3597 7.98371 9.17633 7.05719 8.35266L3.63587 5.31159C2.53937 4.3367 1.83945 3.00095 1.65207 1.56235H18.425C18.2376 3.00095 17.5378 4.3367 16.4412 5.31143Z" fill="#76746F"/>
</svg>

<svg xmlns="http://www.w3.org/2000/svg" width="20" height="20" fill="none"><path fill="#76746F" d="M19.257 0H.82a.781.781 0 0 0-.78.781A7.63 7.63 0 0 0 2.597 6.48L6.019 9.52c.594.528.934 1.286.934 2.08v7.618c0 .622.696.996 1.214.65l4.61-3.073a.781.781 0 0 0 .347-.65v-4.546c0-.793.34-1.551.934-2.079l3.421-3.04A7.63 7.63 0 0 0 20.038.78.781.781 0 0 0 19.257 0ZM16.44 5.311 13.02 8.353a4.348 4.348 0 0 0-1.458 3.246v4.128l-3.047 2.031v-6.159c0-1.24-.531-2.423-1.458-3.246L3.636 5.312a6.069 6.069 0 0 1-1.984-3.75h16.773a6.067 6.067 0 0 1-1.984 3.75Z"/></svg>
